X:97
T:Le deuil d'amour
R:Bourre
O:France
N:tagafolk.abc
Z:<anamnese@laposte.net> -- http://anamnese.fr.st
M:2/4
L:1/8
Q:1/2=110
K:F
F | D > E F G | A3 A | B > A GA | FE D F |
    D > E F G | A3 A | B > A GA | FE D A |
A2 d2 | A3 A | B > A G F | E3 F | G2 B2 | A > G F E | D3 z ||
